icons/diarrhea_fill.svg

<svg width="48" height="48" viewBox="0 0 48 48" fill="none" xmlns="http://www.w3.org/2000/svg">
<path fill-rule="evenodd" clip-rule="evenodd" d="M37.5 15C39.9853 15 42 12.9853 42 10.5C42 8.01472 39.9853 6 37.5 6C35.0147 6 33 8.01472 33 10.5C33 12.9853 35.0147 15 37.5 15ZM29.254 23.2772C29.2735 22.9954 29.2981 22.6872 29.3263 22.3621C28.7388 22.7568 28.3151 23.0574 27.9364 23.3779C27.3787 23.8498 26.9211 24.3708 26.2777 25.4431L25.9754 25.9469C26.5242 26.3826 27.0694 26.7757 27.5195 27.0861C27.8195 27.2929 28.0717 27.4592 28.2469 27.5726C28.3345 27.6292 28.4025 27.6724 28.4473 27.7007L28.4965 27.7316L28.5081 27.7387C28.894 27.9765 29.188 28.3386 29.3413 28.7652L33.1362 39.3234C33.5098 40.3629 32.97 41.5084 31.9306 41.882C30.8911 42.2556 29.7456 41.7158 29.372 40.6763L25.8063 30.7557C25.6449 30.649 25.4567 30.5224 25.2489 30.3791C24.5797 29.9177 23.6842 29.2667 22.8183 28.5294C21.9767 27.8127 21.0532 26.923 20.4213 25.975C19.8678 25.1448 19.0628 23.53 19.9973 21.9115C22.7224 17.1914 25.6249 14.9697 28.1264 14.1021C29.3625 13.6735 30.465 13.5902 31.3321 13.6852C31.7556 13.7317 32.1668 13.8256 32.5281 13.9739C32.6991 14.0441 32.9352 14.1574 33.1673 14.3375C33.2826 14.427 33.4549 14.5775 33.6136 14.8002C33.7648 15.0123 34 15.4272 34 15.9999C34.0001 16.1732 33.9691 16.4646 33.9488 16.655L33.9451 16.6902C33.9166 16.9583 33.8767 17.317 33.8307 17.7291L33.8105 17.9096C33.721 18.7092 33.6108 19.695 33.5083 20.6775C33.3976 21.7399 33.2984 22.775 33.2444 23.5536C33.2382 23.6442 33.2326 23.7294 33.2278 23.8092C33.3722 23.8988 33.551 24.0093 33.7687 24.1437L33.7703 24.1447L33.7713 24.1453C34.394 24.53 35.3345 25.111 36.694 25.9607C37.6306 26.5461 37.9154 27.78 37.3299 28.7167C36.7445 29.6534 35.5106 29.9381 34.5739 29.3527C33.2101 28.5003 32.3313 27.9575 31.7192 27.5795L31.7179 27.5786C31.4225 27.3962 31.1894 27.2522 30.9938 27.1303C30.4518 26.7924 30.1678 26.6109 29.8399 26.283C29.448 25.8911 29.3284 25.4459 29.3021 25.3479L29.3004 25.3415C29.2556 25.1762 29.2363 25.0305 29.2267 24.9416C29.2067 24.7569 29.2031 24.5683 29.2035 24.415C29.2044 24.0953 29.2249 23.6974 29.254 23.2772ZM13.5 42H22C22 40.6193 21.5 37 13.5 37C9.35786 37 6 38.1193 6 39.5C6 40.8807 9.35786 42 13.5 42ZM18.1385 29.0463C18.6357 29.2868 18.8437 29.8848 18.6032 30.3819L16.4002 34.9355C16.1597 35.4326 15.5616 35.6407 15.0645 35.4002C14.5673 35.1596 14.3593 34.5616 14.5998 34.0645L16.8028 29.5109C17.0434 29.0138 17.6414 28.8057 18.1385 29.0463ZM21.9013 33.4335C22.1406 32.9358 21.9311 32.3383 21.4334 32.099C20.9357 31.8596 20.3382 32.0691 20.0988 32.5668L18.8753 35.1114C18.6359 35.6092 18.8454 36.2067 19.3431 36.446C19.8409 36.6853 20.4384 36.4759 20.6777 35.9781L21.9013 33.4335Z" fill="black"/>
</svg>

<svg
  xmlns="http://www.w3.org/2000/svg"
  width="24"
  height="24"
  viewBox="0 0 24 24"
  fill="none"
  stroke="currentColor"
  stroke-width="2"
  stroke-linecap="round"
  stroke-linejoin="round"
>
  <path
    fill-rule="evenodd"
    d="M37.5 15a4.5 4.5 0 1 0 0-9 4.5 4.5 0 0 0 0 9m-8.246 8.277c.02-.282.044-.59.072-.915-.587.395-1.01.695-1.39 1.016-.557.472-1.015.993-1.658 2.065l-.303.504a29 29 0 0 0 2.472 1.754l.05.03.011.008c.386.238.68.6.833 1.026l3.795 10.558a2 2 0 1 1-3.764 1.353l-3.566-9.92c-.161-.107-.35-.234-.557-.377a31 31 0 0 1-2.43-1.85c-.842-.716-1.766-1.606-2.398-2.554-.553-.83-1.358-2.445-.424-4.064 2.725-4.72 5.628-6.941 8.13-7.809 1.236-.428 2.338-.512 3.205-.417.424.047.835.14 1.196.289.171.07.407.183.64.364.115.089.287.24.446.462.15.212.386.627.386 1.2 0 .173-.03.465-.051.655l-.004.035c-.028.268-.068.627-.114 1.04l-.02.18c-.09.8-.2 1.785-.303 2.767a91 91 0 0 0-.28 3.132l.54.335h.002l.001.001c.623.385 1.563.966 2.923 1.816a2 2 0 0 1-2.12 3.392 569 569 0 0 0-2.855-1.774h-.001l-.724-.449c-.542-.338-.826-.52-1.154-.847a2.1 2.1 0 0 1-.538-.935l-.002-.006a2.6 2.6 0 0 1-.073-.4 5 5 0 0 1-.024-.527c.001-.32.022-.718.051-1.138M13.5 42H22c0-1.38-.5-5-8.5-5C9.358 37 6 38.12 6 39.5S9.358 42 13.5 42m4.639-12.954a1 1 0 0 1 .464 1.336L16.4 34.935a1 1 0 0 1-1.8-.87l2.203-4.554a1 1 0 0 1 1.335-.465m3.762 4.388a1 1 0 0 0-1.802-.867l-1.224 2.544a1 1 0 1 0 1.803.867z"
    clip-rule="evenodd"
  />
</svg>
